X:7334
T:The Silvermines
O:england
B:Joyce, P. W.; "Old Irish Folk Music and Songs"
R:reel
H:Written from memory.  In Stanford-Petrie there is a different reel (or a
H:very different setting) with this name, which was given to Petrie by me.
H:Silvermines in Tipperary near Nenagh.
L:1/8
M:C
K:G
G3 A BE E2|BcBA BEEF|GFGA BcBA|Beef edBA|
G3 A BE E2|BcBA BEEF|GFGA BcBA|Beed e3 f||
g3 e f2 d2|BddB d2 ef|g3 e f2 d2|Beed e3 f|
g3 e f2 d2|BddB d2 ef|gfge fdBA|1 Beef edBA:|2 Beed (e2 e2)|]


